!!!COM: Anonymous
!!!OPR: Missa L'ardant desir
!!!ONM: 3
!!!OTL: Credo
!!!AGN: Mass; Credo
!!!SCT: Ano1025c
!!!SCA: Ano1025c
!!!SMS: Capella Sistina 51
!!!folio-OPR:
!!!folio: 90v-104r
!!!voices: 4
**kern	**text	**kern	**text	**kern	**text	**kern	**text
*staff4	*staff4	*staff3	*staff3	*staff2	*staff2	*staff1	*staff1
*Ivox	*	*Ivox	*	*Ivox	*	*Ivox	*
*I"Bassus	*	*I"Tenor	*	*I"Altus	*	*I"Discantus	*
*I'B	*	*I'T	*	*I'A	*	*I'D	*
*>[A,B,C,D]	*>[A,B,C,D]	*>[A,B,C,D]	*>[A,B,C,D]	*>[A,B,C,D]	*>[A,B,C,D]	*>[A,B,C,D]	*>[A,B,C,D]
*>A	*>A	*>A	*>A	*>A	*>A	*>A	*>A
*clefF4	*	*clefGv2	*	*clefGv2	*	*clefG2	*
*k[]	*	*k[]	*	*k[]	*	*k[]	*
*M3/1	*	*M3/1	*	*M3/1	*	*M3/1	*
*met(O)	*	*met(O)	*	*met(O)	*	*met(O)	*
*MM300	*	*MM300	*	*MM300	*	*MM300	*
!!section: Patrem
!!!OMD: Patrem
=1-	=1-	=1-	=1-	=1-	=1-	=1-	=1-
!	!	!LO:TX:X=-40:Z=8:t=T to be read in O with perfect modus, omitting stems	!	!	!	!	!
0.r	.	0.r	.	0.A	Pa-	[0.a	Pa-
=2	=2	=2	=2	=2	=2	=2	=2
0.r	.	0.r	.	0.c	-trem	1a]	.
.	.	.	.	.	.	0e	-trem
=3	=3	=3	=3	=3	=3	=3	=3
0.r	.	0.r	.	0d	om-	1d	om-
.	.	.	.	.	.	1f	-ni-
.	.	.	.	1c	-ni-	2e	-po-
.	.	.	.	.	.	[2a	-ten-
=4	=4	=4	=4	=4	=4	=4	=4
0.r	.	0.r	.	2d	-po-	1a]	.
.	.	.	.	2f	.	.	.
.	.	.	.	2e	-ten-	2g	.
.	.	.	.	2d	.	2f	.
.	.	.	.	1A	.	2e	.
.	.	.	.	.	.	[2cc	.
=5	=5	=5	=5	=5	=5	=5	=5
0.r	.	0.r	.	2.E	.	2cc]	.
.	.	.	.	.	.	2.b	.
.	.	.	.	4F	.	.	.
.	.	.	.	2G	.	.	.
.	.	.	.	.	.	4a	.
.	.	.	.	2A	.	1a	.
.	.	.	.	1B	.	.	.
.	.	.	.	.	.	2g#i	.
=6	=6	=6	=6	=6	=6	=6	=6
0.r	.	0.r	.	1A	-tem,	1a	-tem,
.	.	.	.	1c	.	2r	.
.	.	.	.	.	.	1a	fac-
.	.	.	.	1d	fac-	.	.
.	.	.	.	.	.	2b	.
=7	=7	=7	=7	=7	=7	=7	=7
0.r	.	0.A	Pa-	1e	-to-	1cc	-to-
.	.	.	.	1f	-rem	2a	-rem
.	.	.	.	.	.	1a	ce-
.	.	.	.	1e	.	.	.
.	.	.	.	.	.	4g	.
.	.	.	.	.	.	4f	.
=8	=8	=8	=8	=8	=8	=8	=8
0.r	.	[0.c	-trem	2r	.	1.e	-li
.	.	.	.	2.A	ce-	.	.
.	.	.	.	4B	.	.	.
.	.	.	.	4c	.	2.A	et
.	.	.	.	4d	.	.	.
.	.	.	.	2e	-li	.	.
.	.	.	.	.	.	4B	.
.	.	.	.	[2A	et	4c	.
.	.	.	.	.	.	4d	.
=9	=9	=9	=9	=9	=9	=9	=9
0.r	.	0.c]	.	1.A]	.	2e	.
.	.	.	.	.	.	2f	.
.	.	.	.	.	.	2e	ter-
.	.	.	.	2F	.	2d	.
.	.	.	.	2E	ter-	1e	.
.	.	.	.	2A	.	.	.
=10	=10	=10	=10	=10	=10	=10	=10
0.r	.	[0.d	om-	0D	-re,	1d	-re,
.	.	.	.	.	.	2r	.
.	.	.	.	.	.	2a	vi-
.	.	.	.	2.D	vi-	2a	-si-
.	.	.	.	.	.	2a	-bi-
.	.	.	.	4G	-si-	.	.
=11	=11	=11	=11	=11	=11	=11	=11
0.r	.	0.d]	.	2G	-bi-	2b-i	-li-
.	.	.	.	2.D	.	1a	.
.	.	.	.	8EL	.	.	.
.	.	.	.	8FJ	.	.	.
.	.	.	.	4G	.	2g	.
.	.	.	.	4A	.	.	.
.	.	.	.	4B-i	.	1f	um
.	.	.	.	8AL	.	.	.
.	.	.	.	8GJ	.	.	.
.	.	.	.	4F	-li-	.	.
.	.	.	.	4G	.	.	.
=12	=12	=12	=12	=12	=12	=12	=12
0.r	.	0c	-ni-	0A	-um	2e	om-
.	.	.	.	.	.	2.a	.
.	.	.	.	.	.	4g	.
.	.	.	.	.	.	2e	.
.	.	1d	-po-	2.B-i	om-	2d	.
.	.	.	.	.	.	[2f	.
.	.	.	.	4A	.	.	.
=13	=13	=13	=13	=13	=13	=13	=13
0.r	.	1f	-ten-	2F	.	4f]	.
.	.	.	.	.	.	4e	.
.	.	.	.	2G	-ni-	1d	.
.	.	1e	.	1A	-um	.	.
.	.	.	.	.	.	2c	-ni-
.	.	1d	.	[1D	et	2B	-um
.	.	.	.	.	.	2A	.
=14	=14	=14	=14	=14	=14	=14	=14
0.r	.	0.A	-tem,	1D]	.	2r	.
.	.	.	.	.	.	1f	et
.	.	.	.	1.c	in-	.	.
.	.	.	.	.	.	1e	in-
.	.	.	.	2d	vi-	[2a	-vi-
=15	=15	=15	=15	=15	=15	=15	=15
0.r	.	0c	fac-	1e	-si-	2a]	.
.	.	.	.	.	.	1a	-si-
.	.	.	.	1A	-bi-	.	.
.	.	.	.	.	.	2g	-bi-
.	.	1d	-to-	1B	-li-	2f	.
.	.	.	.	.	.	4e	-li-
.	.	.	.	.	.	4d	.
=16	=16	=16	=16	=16	=16	=16	=16
0.AA	Et	[0.e	-rem	[0.A	-um.	0c	-um.
.	.	.	.	.	.	1r	.
=17	=17	=17	=17	=17	=17	=17	=17
1.AA	in	0.e]	.	0.A_	.	1c	Et
.	.	.	.	.	.	2c	in
2.AA	u-	.	.	.	.	2.c	u-
4BB	.	.	.	.	.	4d	.
2C	.	.	.	.	.	2e	.
=18	=18	=18	=18	=18	=18	=18	=18
2D	-num	0d	ce-	0.A]	.	2.f	-num
2E	.	.	.	.	.	.	.
.	.	.	.	.	.	4g	.
2F	.	.	.	.	.	1a	.
2G	.	.	.	.	.	.	.
2A	do-	1c	-li	.	.	2a	do-
2F	-mi-	.	.	.	.	2a	-mi-
=19	=19	=19	=19	=19	=19	=19	=19
[0.G	-num	[0.B-i	et	1G	Et	1d	-num
.	.	.	.	0d	in	1r	.
.	.	.	.	.	.	[1g	Je-
=20	=20	=20	=20	=20	=20	=20	=20
0.G]	.	0.B-]	.	0d	u-	2g]	.
.	.	.	.	.	.	1b-	.
.	.	.	.	.	.	2a	.
.	.	.	.	1e	-num	1g	-sum
=21	=21	=21	=21	=21	=21	=21	=21
1D	.	0.A	ter-	1d	do-	1f	Chris-
1r	.	.	.	2c	-mi-	1.e	.
.	.	.	.	1c	-num	.	.
1r	.	.	.	.	.	.	.
.	.	.	.	2B	Je-	2d	.
=22	=22	=22	=22	=22	=22	=22	=22
1.F	Je-	0.D	-re,	2.A	-sum	1d	-tum,
.	.	.	.	4B-i	.	.	.
.	.	.	.	2A	.	1a	fi-
2G	-sum	.	.	2G	Chris-	.	.
1A	Chris-	.	.	1F	-tum,	1a	-li-
=23	=23	=23	=23	=23	=23	=23	=23
1B-	-tum,	0.d	fi-	2r	.	2g	-um
.	.	.	.	1G	fi-	2.b-i	de-
2G	fi-	.	.	.	.	.	.
.	.	.	.	.	.	4a	.
2A	-li-	.	.	2D	-li-	1a	.
1B-i	-um	.	.	1G	-um	.	.
.	.	.	.	.	.	2g	.
=24	=24	=24	=24	=24	=24	=24	=24
1.A	de-	0.e	.	0.c	de-	2a	.
.	.	.	.	.	.	1cc	.
4G	.	.	.	.	.	4b	.
4F	.	.	.	.	.	4a	.
1E	.	.	.	.	.	1g	.
=25	=25	=25	=25	=25	=25	=25	=25
0D	-i	0.A	-li-	1d	-i	1f	-i
.	.	.	.	1d	u-	1a	u-
2D	u-	.	.	2.A	-ni-	1d	-ni-
4C	-ni-	.	.	.	.	.	.
4BB	.	.	.	4B	.	.	.
=26	=26	=26	=26	=26	=26	=26	=26
2AA	-ge-	0.A	-um	2c	-ge-	2e	-ge-
1D	.	.	.	1d	.	1f	.
2C	.	.	.	2e	.	2e	.
[1D	.	.	.	1f	.	2d	.
.	.	.	.	.	.	4c	.
.	.	.	.	.	.	4B	.
=27	=27	=27	=27	=27	=27	=27	=27
2D]	.	0d	de-	1F	.	1A	.
1F	.	.	.	.	.	.	.
.	.	.	.	2A	.	1f	.
4E	.	.	.	2B	.	.	.
4D	.	.	.	.	.	.	.
1C	-ni-	1A	-i	1c	-ni-	1e	-ni-
=28	=28	=28	=28	=28	=28	=28	=28
[0.BB-	-tum.	[0.B-i	u-	0F	-tum.	0d	-tum.
.	.	.	.	2r	.	1f	Et
.	.	.	.	[2D	Et	.	.
=29	=29	=29	=29	=29	=29	=29	=29
0.BB-]	.	0.B-i]	.	4D]	.	2g	ex
.	.	.	.	4E	.	.	.
.	.	.	.	4F	.	2.b-i	pa-
.	.	.	.	4G	.	.	.
.	.	.	.	2F	ex	.	.
.	.	.	.	.	.	4a	.
.	.	.	.	2.B-	pa-	4g	.
.	.	.	.	.	.	4f	.
.	.	.	.	.	.	2g	.
.	.	.	.	4c	.	.	.
.	.	.	.	[2d	.	[2f	.
=30	=30	=30	=30	=30	=30	=30	=30
0F	Et	0A	-ni-	4d]	.	2f]	.
.	.	.	.	4c	.	.	.
.	.	.	.	2.f	-tre	2d	.
.	.	.	.	.	.	2c	-tre,
.	.	.	.	4e	.	.	.
.	.	.	.	4d	.	1f	pa-
.	.	.	.	4c	.	.	.
1G	ex	1G	-ge-	2.B-i	na-	.	.
.	.	.	.	.	.	2e	.
.	.	.	.	4A	.	.	.
=31	=31	=31	=31	=31	=31	=31	=31
2A	pa-	0.F	-ni-	1c	-tum	2f	.
2B-i	.	.	.	.	.	2g	.
1c	-tre	.	.	1r	.	1a	-tre
1r	.	.	.	1c	an-	1f	.
=32	=32	=32	=32	=32	=32	=32	=32
1c	na-	0.F	-tum,	2.A	.	2r	.
.	.	.	.	.	.	1cc	na-
.	.	.	.	4B-i	.	.	.
1A	.	.	.	2c	.	.	.
.	.	.	.	2d	.	2b-i	.
1c	.	.	.	2c	-te	1a	-tum
.	.	.	.	2f	om-	.	.
=33	=33	=33	=33	=33	=33	=33	=33
2B-i	.	0.G	ge-	2e	.	2g	an-
1d	-tum	.	.	1g	.	2.b-i	.
.	.	.	.	.	.	4a	.
!LO:TX:Y=20:t=MS&colon; c'	!	!	!	!	!	!	!
2d	an-	.	.	2f	.	2b-i	.
2.B-i	.	.	.	2d	-ni-	2.g	.
.	.	.	.	2e	.	.	.
4A	.	.	.	.	.	4f	.
=34	=34	=34	=34	=34	=34	=34	=34
!LO:TX:Z=24:t=MS&colon; O-dot mensuration	!	!	!	!	!	!	!
1.c	-te	[0.F	.	0.f	-a	1a	-te
.	.	.	.	.	.	1r	.
2A	om-	.	.	.	.	.	.
2d	.	.	.	.	.	1a	om-
2c	.	.	.	.	.	.	.
=35	=35	=35	=35	=35	=35	=35	=35
1.A	-ni-	0.F_	.	1c	.	2a	-ni-
.	.	.	.	.	.	1f	-a
.	.	.	.	1r	.	.	.
1F	-a	.	.	.	.	2d	.
.	.	.	.	1f	se-	[1d	.
2D	.	.	.	.	.	.	.
=36	=36	=36	=36	=36	=36	=36	=36
1.D	se-	0.F]	.	1.f	-cu-	2d]	.
.	.	.	.	.	.	2c	.
.	.	.	.	.	.	2.A	se-
4C	.	.	.	4e	.	.	.
4BB	.	.	.	4d	.	4B	.
2AA	.	.	.	2c	.	2c	.
2BB	.	.	.	4B	.	2d	.
.	.	.	.	4A	.	.	.
=37	=37	=37	=37	=37	=37	=37	=37
2.C	.	0.E	-ni-	2G	.	2e	.
.	.	.	.	1c	-la.	2.g	.
4BB	.	.	.	.	.	.	.
2AA	-cu-	.	.	.	.	.	.
.	.	.	.	.	.	4f	.
2GG	.	.	.	2B	.	4e	.
.	.	.	.	.	.	4d	.
1AA	-la.	.	.	1A	De-	2.c#i	-cu-
.	.	.	.	.	.	4B	.
=38	=38	=38	=38	=38	=38	=38	=38
1r	.	[0.D	-tum.	2B-i	-um	0.d	-la.
.	.	.	.	1A	de	.	.
0A	De-	.	.	.	.	.	.
.	.	.	.	2G	.	.	.
.	.	.	.	2F	de-	.	.
.	.	.	.	2E	.	.	.
=39	=39	=39	=39	=39	=39	=39	=39
2B-i	-um	0.D]	.	1D	-o,	1r	.
1A	de	.	.	.	.	.	.
.	.	.	.	1.d	lu-	1r	.
2G	.	.	.	.	.	.	.
2F	de-	.	.	.	.	1a	De-
2E	.	.	.	2c	.	.	.
=40	=40	=40	=40	=40	=40	=40	=40
1D	-o,	0.r	.	1d	.	2b-i	-um
.	.	.	.	.	.	1a	de
1E	.	.	.	2c	.	.	.
.	.	.	.	2B	.	2g	.
1F	lu-	.	.	1A	.	2f	de-
.	.	.	.	.	.	2e	.
=41	=41	=41	=41	=41	=41	=41	=41
2G	.	0.r	.	2B-i	.	1.d	-o,
1.B-i	.	.	.	1G	.	.	.
.	.	.	.	2.D	.	1.f	lu-
[1A	-men	.	.	.	.	.	.
.	.	.	.	4E	.	.	.
.	.	.	.	4F	.	.	.
.	.	.	.	4G	.	.	.
=42	=42	=42	=42	=42	=42	=42	=42
2A]	.	0.r	.	1A	-men	1.e	-men
1.c	de	.	.	.	.	.	.
.	.	.	.	2r	.	.	.
.	.	.	.	1E	de	1.g	de
[1G	lu-	.	.	.	.	.	.
.	.	.	.	2C	.	.	.
=43	=43	=43	=43	=43	=43	=43	=43
2G]	.	0.r	.	1G	lu-	1.d	lu-
1.B-i	-mi-	.	.	.	.	.	.
.	.	.	.	2D	.	.	.
.	.	.	.	2.d	.	1f	.
[1F	-ne,	.	.	.	.	.	.
.	.	.	.	4e	.	.	.
.	.	.	.	[2f	.	4e	-mi-
.	.	.	.	.	.	4d	.
=44	=44	=44	=44	=44	=44	=44	=44
2F]	.	0.r	.	2f]	.	1c	-ne,
1.c	de-	.	.	2g	-mi-	.	.
.	.	.	.	1e	-ne,	2g	de-
.	.	.	.	.	.	1a	.
[1d	-um	.	.	[1f	de-	.	.
.	.	.	.	.	.	2b	.
=45	=45	=45	=45	=45	=45	=45	=45
2d]	.	0.r	.	2f]	.	2a	.
1.A	ve-	.	.	2e	.	1cc	-um
.	.	.	.	1e	-um	.	.
.	.	.	.	.	.	1a	ve-
1B-i	.	.	.	1d	ve-	.	.
.	.	.	.	.	.	2g	.
=46	=46	=46	=46	=46	=46	=46	=46
2A	-rum	0.r	.	1c	-rum	2f	.
1c	.	.	.	.	.	4e	.
.	.	.	.	.	.	4d	.
.	.	.	.	1F	de	2c	-rum
2A	de	.	.	.	.	1f	de
1G	de-	.	.	1C	de-	.	.
.	.	.	.	.	.	2e	de-
=47	=47	=47	=47	=47	=47	=47	=47
1.F	-o	0.r	.	2.D	-o	2f	-o
.	.	.	.	.	.	1a	.
.	.	.	.	4E	.	.	.
.	.	.	.	2F	.	.	.
2E	.	.	.	2G	ve-	2g	ve-
1D	ve-	.	.	2A	.	2f	.
.	.	.	.	2B	.	2d	.
=48	=48	=48	=48	=48	=48	=48	=48
0.C	.	0.r	.	2c	.	2e	.
.	.	.	.	2d	.	2f	.
.	.	.	.	1.e	.	0g	.
.	.	.	.	2c	.	.	.
=49	=49	=49	=49	=49	=49	=49	=49
[0.F	-ro.	[0.f	Ge-	0c	-ro.	1f	-ro.
.	.	.	.	.	.	1r	.
.	.	.	.	1r	.	1cc	Ge-
=50	=50	=50	=50	=50	=50	=50	=50
0.F]	.	0.f_	.	0.A	Ge-	1cc	-ni-
.	.	.	.	.	.	2cc	-tum,
.	.	.	.	.	.	2cc	non
.	.	.	.	.	.	1cc	fac-
=51	=51	=51	=51	=51	=51	=51	=51
[0.A	Qui	0.f]	.	1c	.	0a	-tum,
.	.	.	.	2d	-ni-	.	.
.	.	.	.	2c	.	.	.
.	.	.	.	2.f	-tum,	1a	con-
.	.	.	.	4e	.	.	.
=52	=52	=52	=52	=52	=52	=52	=52
0.A]	.	[0.e	-ni-	1c	non	1a	-sub-
.	.	.	.	1c	fac-	1.cc	-stan-
.	.	.	.	1c	-tum,	.	.
.	.	.	.	.	.	2cc	-ti-
=53	=53	=53	=53	=53	=53	=53	=53
0.c	prop-	0.e]	.	1r	.	1cc	-a-
.	.	.	.	0g	con-	1cc	-lem
.	.	.	.	.	.	1cc	pa-
=54	=54	=54	=54	=54	=54	=54	=54
0.G	-ter	0d	-tum	0g	-sub-	0b	.
.	.	1d	non	[1d	-stan-	[1g	.
=55	=55	=55	=55	=55	=55	=55	=55
0.r	.	[0.B	fa-	1d]	.	1g]	.
.	.	.	.	0G	-ti-	0d	-tri,
=56	=56	=56	=56	=56	=56	=56	=56
0.G	et	0.B]	.	1d	-a-	1g	per
.	.	.	.	1d	-lem	2g	quem
.	.	.	.	.	.	1g	om-
.	.	.	.	1d	pa-	.	.
.	.	.	.	.	.	2g	-ni-
=57	=57	=57	=57	=57	=57	=57	=57
0.D	prop-	0.A	-tum	0d	-tri,	1f	-a
.	.	.	.	.	.	1f	fac-
.	.	.	.	[1A	per	2f	-ta
.	.	.	.	.	.	[2a	.
=58	=58	=58	=58	=58	=58	=58	=58
1C	.	1e	et	1A]	.	2a]	.
.	.	.	.	.	.	2g	.
0D	.	0d	.	0B	quem	2f	.
.	.	.	.	.	.	2d	.
.	.	.	.	.	.	2.f	.
.	.	.	.	.	.	4g	.
=59	=59	=59	=59	=59	=59	=59	=59
0.AA	-ter	0.c	prop-	2A	om-	0e	sunt.
.	.	.	.	1A	-ni-	.	.
.	.	.	.	4G	-a	.	.
.	.	.	.	4F	.	.	.
.	.	.	.	1E	fac-	1e	Qui
=60	=60	=60	=60	=60	=60	=60	=60
0.r	.	0.d	-ter	0.D	-ta	1A	prop-
.	.	.	.	.	.	1A	-ter
.	.	.	.	.	.	1A	nos
=61	=61	=61	=61	=61	=61	=61	=61
[0.AA	nos-	[0.e	nos-	0.C	sunt.	2A	ho-
.	.	.	.	.	.	2A	-mi-
.	.	.	.	.	.	2.A	-nes,
.	.	.	.	.	.	4B	.
.	.	.	.	.	.	1c	.
=62	=62	=62	=62	=62	=62	=62	=62
1AA]	.	0.e]	.	0.r	.	2c	et
.	.	.	.	.	.	1c	prop-
0A	.	.	.	.	.	.	.
.	.	.	.	.	.	2d	-ter
.	.	.	.	.	.	2c#i	nos-
.	.	.	.	.	.	2B	.
=63	=63	=63	=63	=63	=63	=63	=63
0B-i	-tram	0d	-tram	0G	sa-	1d	-tram
.	.	.	.	.	.	1r	.
[1A	sa-	1f	sa-	[1c	.	[1a	sa-
=64	=64	=64	=64	=64	=64	=64	=64
1A]	.	0.e	-lu-	1c]	.	1a]	.
0E	-lu-	.	.	1B	-lu-	1g	.
.	.	.	.	1c	.	1g	-lu-
=65	=65	=65	=65	=65	=65	=65	=65
1.D	-tem,	0.A	-tem,	0d	-tem,	1f	-tem,
.	.	.	.	.	.	0a	.
2E	.	.	.	.	.	.	.
1F	.	.	.	1c	.	.	.
=66	=66	=66	=66	=66	=66	=66	=66
1G	de-	0.d	de-	1B-i	.	1b-i	de-
1F	-scen-	.	.	1.f	de-	1.a	-scen-
[1D	.	.	.	.	.	.	.
.	.	.	.	2e	.	2d	.
=67	=67	=67	=67	=67	=67	=67	=67
1D]	.	1A	-scen-	1f	-scen-	1d	-dit
0E	-dit	0G	-dit	0e	-dit	1c	.
.	.	.	.	.	.	1B	.
=68	=68	=68	=68	=68	=68	=68	=68
1.F	de	0.D	de	1d	de	2A	.
.	.	.	.	.	.	1a	de
.	.	.	.	0A	.	.	.
2E	.	.	.	.	.	2g	.
2D	ce-	.	.	.	.	2f	ce-
4C	.	.	.	.	.	4e	.
4BB	.	.	.	.	.	4d	.
=69	=69	=69	=69	=69	=69	=69	=69
!	!	!	!	!	!	!LO:TX:Z=8:t=MS&colon; sharp	!
2AA	.	0.E	ce-	2.A	ce-	2c	.
2.C	.	.	.	.	.	2.e	.
.	.	.	.	4G	.	.	.
.	.	.	.	4E	.	.	.
4BB	.	.	.	4F	.	4d	.
2GG	.	.	.	2G	.	2B	.
1AA	.	.	.	2.C	.	2.c#i	.
.	.	.	.	8DL	.	4B	.
.	.	.	.	8EJ	.	.	.
=70	=70	=70	=70	=70	=70	=70	=70
[0.Dl	-lis.	[0.Dl	-lis.	2F	.	[0.dl	-lis.
.	.	.	.	2.D	.	.	.
.	.	.	.	4E	.	.	.
.	.	.	.	4F	.	.	.
.	.	.	.	4G	.	.	.
.	.	.	.	2A	.	.	.
.	.	.	.	2B-i	.	.	.
=71	=71	=71	=71	=71	=71	=71	=71
0.D]	.	0.D]	.	0.Al	-lis.	0.d]	.
!!LO:LB:i:g=z
=72||	=72||	=72||	=72||	=72||	=72||	=72||	=72||
*>B	*>B	*>B	*>B	*>B	*>B	*>B	*>B
*clefF4	*	*clefGv2	*	*clefGv2	*	*clefG2	*
*k[]	*	*k[]	*	*k[]	*	*k[]	*
*M2/1	*	*M2/1	*	*M2/1	*	*M2/1	*
*met(C|)	*	*met(C|)	*	*met(C|)	*	*met(C|)	*
*MM400	*	*MM400	*	*MM400	*	*MM400	*
!!section: Et incarnatus est
!!!OMD: Et incarnatus est
0r	.	0r	.	1.D	Et	0A	Et
.	.	.	.	2C	.	.	.
=73.	=73.	=73.	=73.	=73.	=73.	=73.	=73.
0r	.	0r	.	1D	in-	1A	in-
.	.	.	.	1F	-car-	[1d	-car-
=74.	=74.	=74.	=74.	=74.	=74.	=74.	=74.
0r	.	0r	.	1G	-na-	1d]	.
.	.	.	.	1E	-tus	1c	.
=75	=75	=75	=75	=75	=75	=75	=75
0r	.	0r	.	1D	est	1.d	.
.	.	.	.	2r	.	.	.
.	.	.	.	2A	de	2c	.
=76.	=76.	=76.	=76.	=76.	=76.	=76.	=76.
0r	.	0r	.	2B	spi-	1d	.
.	.	.	.	2c	.	.	.
.	.	.	.	2d	.	1f	.
.	.	.	.	4c	.	.	.
.	.	.	.	4d	.	.	.
=77.	=77.	=77.	=77.	=77.	=77.	=77.	=77.
0r	.	0r	.	4e	.	1g	-na-
.	.	.	.	4d	.	.	.
.	.	.	.	4c	.	.	.
.	.	.	.	4B	.	.	.
.	.	.	.	2c	.	1e	-tus
.	.	.	.	4d	.	.	.
.	.	.	.	4e	.	.	.
=78	=78	=78	=78	=78	=78	=78	=78
1.D	Et	0r	.	1f	.	1d	est
.	.	.	.	2d	.	[1a	de
2C	.	.	.	2e	.	.	.
=79.	=79.	=79.	=79.	=79.	=79.	=79.	=79.
1D	in-	0r	.	2f	.	1a]	.
.	.	.	.	1d	.	.	.
1F	-car-	.	.	.	.	1a	spi-
.	.	.	.	2f	.	.	.
=80.	=80.	=80.	=80.	=80.	=80.	=80.	=80.
1G	-na-	0r	.	2e	.	0g	-ri-
.	.	.	.	2d	.	.	.
1E	-tus	.	.	1e	-ri-	.	.
=81	=81	=81	=81	=81	=81	=81	=81
1D	est	0r	.	1.A	-tu	1f	-tu
1C	de	.	.	.	.	[1e	sanc-
.	.	.	.	2G	.	.	.
=82.	=82.	=82.	=82.	=82.	=82.	=82.	=82.
0AA	spi-	0r	.	1A	.	2e]	.
.	.	.	.	.	.	2f	.
.	.	.	.	1c	sanc-	2e	.
.	.	.	.	.	.	2f	.
=83.	=83.	=83.	=83.	=83.	=83.	=83.	=83.
0GG	-ri-	0r	.	1d	.	2g	.
.	.	.	.	.	.	2f	.
.	.	.	.	1B	.	1d	.
=84	=84	=84	=84	=84	=84	=84	=84
1.AA	-tu	0r	.	1A	.	1c	.
.	.	.	.	2c	.	1e	.
2GG	.	.	.	2B	.	.	.
=85.	=85.	=85.	=85.	=85.	=85.	=85.	=85.
1AA	sanc-	0r	.	2c	-to	1e	-to
.	.	.	.	2d	.	.	.
1C	.	.	.	1e	.	[1A	.
=86.	=86.	=86.	=86.	=86.	=86.	=86.	=86.
1D	.	0r	.	2d	ex	1A]	.
.	.	.	.	1d	Ma-	.	.
1BB	.	.	.	.	.	1G	ex
.	.	.	.	2B	.	.	.
=87	=87	=87	=87	=87	=87	=87	=87
0AA	-to	0r	.	2c	.	1.A	Ma-
.	.	.	.	2d	.	.	.
.	.	.	.	[1e	.	.	.
.	.	.	.	.	.	2G	.
=88.	=88.	=88.	=88.	=88.	=88.	=88.	=88.
0r	.	0r	.	2e]	.	1A	.
.	.	.	.	2A	.	.	.
.	.	.	.	2A	-ri-	1c	-ri-
.	.	.	.	4G	.	.	.
.	.	.	.	4A	.	.	.
=89.	=89.	=89.	=89.	=89.	=89.	=89.	=89.
0r	.	0r	.	4B-i	-a	1d	-a
.	.	.	.	4A	.	.	.
.	.	.	.	4G	.	.	.
.	.	.	.	4F	.	.	.
.	.	.	.	1G	.	1B	.
=90	=90	=90	=90	=90	=90	=90	=90
1.A	ex	0r	.	2r	.	1A	.
.	.	.	.	1c	vir-	.	.
.	.	.	.	.	.	[1e	vir-
!LO:TX:X=-30:Z=12:t=MS&colon; a	!	!	!	!	!	!	!
2G	Ma-	.	.	2B	.	.	.
=91.	=91.	=91.	=91.	=91.	=91.	=91.	=91.
1A	-ri-	0r	.	2c	.	1e]	.
.	.	.	.	1.A	.	.	.
1F	-a	.	.	.	.	[1d	.
=92.	=92.	=92.	=92.	=92.	=92.	=92.	=92.
1G	vir-	0r	.	2B-i	.	1d]	.
.	.	.	.	1G	.	.	.
1E	.	.	.	.	.	1c	.
.	.	.	.	2F	.	.	.
=93	=93	=93	=93	=93	=93	=93	=93
2D	.	0r	.	1.A	.	1.d	.
1F	.	.	.	.	.	.	.
2E	.	.	.	2G	.	2e	.
=94.	=94.	=94.	=94.	=94.	=94.	=94.	=94.
1F	.	0r	.	1A	.	1d	.
1G	-gi-	.	.	1E	-gi-	1B	-gi-
=95.	=95.	=95.	=95.	=95.	=95.	=95.	=95.
0E	-ne:	0r	.	0G	-ne:	0c#i	-ne:
=96	=96	=96	=96	=96	=96	=96	=96
1D	Et	0r	.	1.A	Et	0d	.
2C	.	.	.	.	.	.	.
2BB	.	.	.	2G	.	.	.
=97.	=97.	=97.	=97.	=97.	=97.	=97.	=97.
1AA	ho-	0r	.	1A	ho-	0r	.
1D	.	.	.	1F	.	.	.
=98.	=98.	=98.	=98.	=98.	=98.	=98.	=98.
1BB	-mo	0r	.	1G	.	0r	.
1C	.	.	.	1E	.	.	.
=99	=99	=99	=99	=99	=99	=99	=99
2r	.	0r	.	0D	-mo	1.a	Et
1D	fac-	.	.	.	.	.	.
2E	.	.	.	.	.	2g	.
=100.	=100.	=100.	=100.	=100.	=100.	=100.	=100.
2F	.	0r	.	0r	.	1a	ho-
2G	.	.	.	.	.	.	.
1A	.	.	.	.	.	1f	.
=101.	=101.	=101.	=101.	=101.	=101.	=101.	=101.
1B	.	0r	.	0r	.	1g	.
1c	.	.	.	.	.	1e	.
=102	=102	=102	=102	=102	=102	=102	=102
1d	.	0r	.	1.D	fac-	1d	-mo
[1A	.	.	.	.	.	2.f	fac-
.	.	.	.	2C	.	.	.
.	.	.	.	.	.	4e	.
=103.	=103.	=103.	=103.	=103.	=103.	=103.	=103.
1A]	.	0r	.	1D	.	2f	.
.	.	.	.	.	.	2g	.
1D	.	.	.	1F	.	2.a	.
.	.	.	.	.	.	4g	.
=104.	=104.	=104.	=104.	=104.	=104.	=104.	=104.
2E	.	0r	.	1G	.	1e	.
1G	.	.	.	.	.	.	.
.	.	.	.	1B-i	.	[1d	.
2F	.	.	.	.	.	.	.
=105	=105	=105	=105	=105	=105	=105	=105
1.D	-tus	0r	.	1A	-tus	2d]	.
.	.	.	.	.	.	2c	.
.	.	.	.	[1d	est,-	1B	-tus
2GG	.	.	.	.	.	.	.
=106.	=106.	=106.	=106.	=106.	=106.	=106.	=106.
1D	est,	0r	.	1d]	.	0A	est.
1F	fac-	.	.	1D	-fac-	.	.
=107.	=107.	=107.	=107.	=107.	=107.	=107.	=107.
1G	.	0r	.	2E	.	1r	.
.	.	.	.	1G	.	.	.
1B-i	.	.	.	.	.	1d	Cru-
.	.	.	.	2F	.	.	.
=108	=108	=108	=108	=108	=108	=108	=108
1A	-tus	0r	.	1D	.	1.d	-ci-
[1d	est.	.	.	1D	-tus	.	.
.	.	.	.	.	.	2A	.
=109.	=109.	=109.	=109.	=109.	=109.	=109.	=109.
1d]	.	0r	.	1D	est.	1d	-fi-
1d	Cru-	.	.	2r	.	1f	.
.	.	.	.	[2d	Cru-	.	.
=110.	=110.	=110.	=110.	=110.	=110.	=110.	=110.
1G	.	0r	.	2d]	.	1g	-xus
.	.	.	.	2d	-ci-	.	.
1A	-ci-	.	.	2.c#i	-fi-	1e	.
.	.	.	.	4B	.	.	.
=111	=111	=111	=111	=111	=111	=111	=111
2F	-fi-	0r	.	1d	-xus	1d	.
1D	.	.	.	.	.	.	.
.	.	.	.	1f	e-	2r	.
2F	.	.	.	.	.	2A	e-
=112.	=112.	=112.	=112.	=112.	=112.	=112.	=112.
1E	-xus	0r	.	1g	.	2B	.
.	.	.	.	.	.	2G	.
2r	.	.	.	1e	-ti-	2A	-ti-
2AA	e-	.	.	.	.	2c	.
=113.	=113.	=113.	=113.	=113.	=113.	=113.	=113.
2BB	.	0r	.	1d	-am	1B	-am
2GG	.	.	.	.	.	.	.
2AA	-ti-	.	.	1r	.	[1A	pro
2C	.	.	.	.	.	.	.
=114	=114	=114	=114	=114	=114	=114	=114
2D	-am	0r	.	1d	pro	2A]	.
2BB	.	.	.	.	.	2G	.
1AA	.	.	.	2c	no-	2A	no-
.	.	.	.	2A	.	2c	.
=115.	=115.	=115.	=115.	=115.	=115.	=115.	=115.
2r	.	0r	.	4B	.	2d	.
.	.	.	.	4A	.	.	.
1D	pro	.	.	4G	.	2B	.
.	.	.	.	4F	.	.	.
.	.	.	.	1E	.	1A	-bis;
2C	.	.	.	.	.	.	.
=116.	=116.	=116.	=116.	=116.	=116.	=116.	=116.
2D	no-	0r	.	1D	-bis;	2r	.
2F	.	.	.	.	.	1d	sub
2G	.	.	.	1r	.	.	.
2E	.	.	.	.	.	2c	.
=117	=117	=117	=117	=117	=117	=117	=117
1D	-bis;	0r	.	2r	.	2d	Pon-
.	.	.	.	1d	sub	2.f	.
2r	.	.	.	.	.	.	.
.	.	.	.	.	.	4g	.
2A	sub	.	.	2c	.	2e	-ti-
=118.	=118.	=118.	=118.	=118.	=118.	=118.	=118.
2B	Pon-	0r	.	2d	Pon-	1d	-o
1d	.	.	.	2.f	.	.	.
.	.	.	.	.	.	2r	.
.	.	.	.	4g	.	.	.
2c	-ti-	.	.	2e	-ti-	[2a	Pi-
=119.	=119.	=119.	=119.	=119.	=119.	=119.	=119.
2d	-o	0r	.	1d	-o	2a]	.
2B	.	.	.	.	.	2g	.
1A	.	.	.	2c	Pi-	2a	.
.	.	.	.	[2e	-la-	2cc	.
=120	=120	=120	=120	=120	=120	=120	=120
2G	Pi-	0r	.	1.e]	.	2b	-la-
2.c	-la-	.	.	.	.	2.a	.
4B	.	.	.	.	.	4g	.
2A	.	.	.	2c	.	2f	.
=121.	=121.	=121.	=121.	=121.	=121.	=121.	=121.
2G	.	0r	.	2B	.	2e	.
2F	.	.	.	2A	.	2d	.
2E	.	.	.	2G	.	2c	.
2D	.	.	.	[2A	.	[2f	.
=122.	=122.	=122.	=122.	=122.	=122.	=122.	=122.
2C	.	0r	.	1.A]	.	4f]	.
.	.	.	.	.	.	4e	.
2F	.	.	.	.	.	1d	.
1E	.	.	.	.	.	.	.
.	.	.	.	2G	.	2c#i	.
=123	=123	=123	=123	=123	=123	=123	=123
1.D	-to	0r	.	2A	-to	1d	-to
.	.	.	.	4B	.	.	.
.	.	.	.	4c	.	.	.
.	.	.	.	[1d	.	[1a	pas-
2E	.	.	.	.	.	.	.
=124.	=124.	=124.	=124.	=124.	=124.	=124.	=124.
1F	.	0r	.	2d]	.	1a]	.
.	.	.	.	2c	pas-	.	.
1G	pas-	.	.	1B	.	1g	.
=125.	=125.	=125.	=125.	=125.	=125.	=125.	=125.
0D	-sus	0r	.	1.A	-sus	1.f	-sus
.	.	.	.	4G	.	4e	.
.	.	.	.	4F	.	4d	.
=126	=126	=126	=126	=126	=126	=126	=126
1C	et	0r	.	1E	.	1e	.
1D	.	.	.	1D	et	[1A	et
=127.	=127.	=127.	=127.	=127.	=127.	=127.	=127.
1AA	.	0r	.	1C	.	1A]	.
1BB	se-	.	.	1D	se-	1d	se-
=128.	=128.	=128.	=128.	=128.	=128.	=128.	=128.
1AA	-pul-	0r	.	0A	-pul-	1e	-pul-
[1D	.	.	.	.	.	[1f	.
=129	=129	=129	=129	=129	=129	=129	=129
2D]	.	0r	.	1B-i	.	2f]	.
2AA	.	.	.	.	.	2e	.
1C	.	.	.	[1G	.	[1e	.
=130.	=130.	=130.	=130.	=130.	=130.	=130.	=130.
1GG	.	0r	.	2G]	.	2e]	.
.	.	.	.	2F	.	2d	.
1BB	.	.	.	1D	.	[1d	.
=131.	=131.	=131.	=131.	=131.	=131.	=131.	=131.
0AA	.	0r	.	0E	-tus	2d]	.
.	.	.	.	.	.	4c#i	.
.	.	.	.	.	.	4d	.
.	.	.	.	.	.	2.c#i	-tus
.	.	.	.	.	.	4B	.
=132.	=132.	=132.	=132.	=132.	=132.	=132.	=132.
1r	.	0r	.	[0Dl	est.	[0dl	est.
1D	-tus	.	.	.	.	.	.
=133	=133	=133	=133	=133	=133	=133	=133
0Dl	est.	0r	.	0D]	.	0d]	.
!!LO:LB:i:g=z
=134||	=134||	=134||	=134||	=134||	=134||	=134||	=134||
*>C	*>C	*>C	*>C	*>C	*>C	*>C	*>C
*clefF4	*	*clefGv2	*	*clefGv2	*	*clefG2	*
*k[]	*	*k[]	*	*k[]	*	*k[]	*
*M2/1	*	*M2/1	*	*M2/1	*	*M2/1	*
*met(O2)	*	*met(O2)	*	*met(O2)	*	*met(O2)	*
*MM400	*	*MM400	*	*MM400	*	*MM400	*
!!section: Et resurrexit
!!!OMD: Et resurrexit
!	!	!LO:TX:X=-40:Z=3:t=T to be read down a 4th, omitting stems and breaking all non-oblique ligatures	!	!	!	!	!
0D	Et	0r	.	[0d	Et	0f	Et
=135.	=135.	=135.	=135.	=135.	=135.	=135.	=135.
1D	re-	0r	.	0d]	.	1f	re-
1D	-sur-	.	.	.	.	1f	-sur-
=136.	=136.	=136.	=136.	=136.	=136.	=136.	=136.
0D	-re-	0r	.	1d	re-	0f	-re-
.	.	.	.	1d	-sur-	.	.
=137	=137	=137	=137	=137	=137	=137	=137
0A	-xit	0r	.	0c	-re-	1e	-xit
.	.	.	.	.	.	1f	.
=138.	=138.	=138.	=138.	=138.	=138.	=138.	=138.
[0B-i	ter-	0r	.	0d	.	1g	ter-
.	.	.	.	.	.	2f	-ti-
.	.	.	.	.	.	2e	.
=139.	=139.	=139.	=139.	=139.	=139.	=139.	=139.
0B-]	.	0r	.	0G	-xit	0d	-a
=140	=140	=140	=140	=140	=140	=140	=140
0A	-ti-	0r	.	1r	.	1c	di-
.	.	.	.	[1A	ter-	1e	.
=141.	=141.	=141.	=141.	=141.	=141.	=141.	=141.
0D	-a	0r	.	0A]	-ti-	2d	.
.	.	.	.	.	.	1f	.
.	.	.	.	.	.	2e	.
=142.	=142.	=142.	=142.	=142.	=142.	=142.	=142.
0F	di-	0r	.	1D	-a	2d	.
.	.	.	.	.	.	2c	.
.	.	.	.	1A	di-	1d	.
=143	=143	=143	=143	=143	=143	=143	=143
1E	-e	0r	.	1G	-e	1c	-e
[1D	se-	.	.	2F	se-	2B	se-
.	.	.	.	[2A	-cun-	[2d	-cun-
=144.	=144.	=144.	=144.	=144.	=144.	=144.	=144.
1D]	.	0r	.	2A]	.	2d]	.
.	.	.	.	2G	-dum	2c	-dum
1C	.	.	.	[1E	scrip-	[1A	scrip-
=145.	=145.	=145.	=145.	=145.	=145.	=145.	=145.
0BBni	.	0r	.	1E]	.	2A]	.
.	.	.	.	.	.	4G#i	.
.	.	.	.	.	.	4F#i	.
.	.	.	.	1D	-tu-	2.G#i	-tu-
.	.	.	.	.	.	4F#i	.
=146	=146	=146	=146	=146	=146	=146	=146
[0AA	-cun-	[0E	Et	0E	-ras.	[0A	-ras.
=147.	=147.	=147.	=147.	=147.	=147.	=147.	=147.
0AA]	.	0E]	.	1r	.	0A]	.
.	.	.	.	1c	Et	.	.
=148.	=148.	=148.	=148.	=148.	=148.	=148.	=148.
0E	-dum	[0G	i-	1B	a-	0r	.
.	.	.	.	1c	.	.	.
=149	=149	=149	=149	=149	=149	=149	=149
0r	.	0G_	.	0d	.	0B	Et
=150.	=150.	=150.	=150.	=150.	=150.	=150.	=150.
[0E	scrip-	0G_	.	1e	.	1B	a-
.	.	.	.	[1e	-scen-	1c	.
=151.	=151.	=151.	=151.	=151.	=151.	=151.	=151.
0E]	.	0G]	.	2e]	.	1B	-scen-
.	.	.	.	2d	.	.	.
.	.	.	.	1B	.	[1e	-dit
=152	=152	=152	=152	=152	=152	=152	=152
0AA	-tu-	[0A	-te-	1c	-dit	1e]	.
.	.	.	.	1e	in	1c	in
=153.	=153.	=153.	=153.	=153.	=153.	=153.	=153.
[0D	-ras.	0A_	.	2f	ce-	1d	ce-
.	.	.	.	1d	.	.	.
.	.	.	.	.	.	[1f	.
.	.	.	.	2c	.	.	.
=154.	=154.	=154.	=154.	=154.	=154.	=154.	=154.
0D]	.	0A_	.	1A	-lum;	2f]	.
.	.	.	.	.	.	2e	.
.	.	.	.	[1f	se-	1d	-lum;
=155	=155	=155	=155	=155	=155	=155	=155
1.AA	se-	0A]	.	2f]	.	1.c	se-
.	.	.	.	2e	.	.	.
.	.	.	.	[1e	-det	.	.
2BB	.	.	.	.	.	2d	.
=156.	=156.	=156.	=156.	=156.	=156.	=156.	=156.
1C	-det	[0G	-rum	2e]	.	1e	-det
.	.	.	.	2d	.	.	.
1D	ad	.	.	1B	ad	1d	ad
=157.	=157.	=157.	=157.	=157.	=157.	=157.	=157.
0E	dex-	0G]	.	0c	dex-	1.g	dex-
.	.	.	.	.	.	4f	.
.	.	.	.	.	.	4e	.
=158	=158	=158	=158	=158	=158	=158	=158
0D	.	0A	ven-	0d	.	2f	.
.	.	.	.	.	.	2g	.
.	.	.	.	.	.	[1a	.
=159.	=159.	=159.	=159.	=159.	=159.	=159.	=159.
0C	.	0c	.	0e	.	2a]	.
.	.	.	.	.	.	4g	.
.	.	.	.	.	.	4f	.
.	.	.	.	.	.	[1g	.
=160.	=160.	=160.	=160.	=160.	=160.	=160.	=160.
0D	.	0B	-tu-	0d	.	2g]	.
.	.	.	.	.	.	4f	.
.	.	.	.	.	.	4e	.
.	.	.	.	.	.	[1f	.
=161	=161	=161	=161	=161	=161	=161	=161
[0AA	-te-	0A	-rus	[0c	.	2f]	.
.	.	.	.	.	.	4e	.
.	.	.	.	.	.	4d	.
.	.	.	.	.	.	[1e	.
=162.	=162.	=162.	=162.	=162.	=162.	=162.	=162.
0AA_	.	[0E	est	1c]	.	2e]	.
.	.	.	.	.	.	2d	-te-
.	.	.	.	1e	-te-	[1c	-ram
=163.	=163.	=163.	=163.	=163.	=163.	=163.	=163.
0AA]	.	0E]	.	0e	-ram	1c]	.
.	.	.	.	.	.	[1e	pa-
=164	=164	=164	=164	=164	=164	=164	=164
0E	-ram	[0G	cum	0B	pa-	0e]	.
=165.	=165.	=165.	=165.	=165.	=165.	=165.	=165.
1r	.	0G]	.	0E	.	1B	.
1E	Et	.	.	.	.	1c#i	.
=166.	=166.	=166.	=166.	=166.	=166.	=166.	=166.
0F	i-	0A	glo-	0D	-tris.	0d	-tris.
=167	=167	=167	=167	=167	=167	=167	=167
[0G	-te-	[0B	-ri-	1r	.	1d	Et
.	.	.	.	[1d	Et	1d	i-
=168.	=168.	=168.	=168.	=168.	=168.	=168.	=168.
0G_	.	0B_	.	0d]	.	0g	.
=169.	=169.	=169.	=169.	=169.	=169.	=169.	=169.
0G]	.	0B_	.	0d	i-	1g	-te-
.	.	.	.	.	.	[1g	-rum
=170	=170	=170	=170	=170	=170	=170	=170
1.G	-rum	0B]	.	1d	-te-	2g]	.
.	.	.	.	.	.	2f	.
.	.	.	.	[1d	-rum	2d	ven-
2F	ven-	.	.	.	.	2e	.
=171.	=171.	=171.	=171.	=171.	=171.	=171.	=171.
2D	-tu-	[0A	-a	2d]	.	2f	-tu-
2E	.	.	.	2c	.	2g	.
2F	.	.	.	2A	ven-	[1a	.
2G	.	.	.	2B	.	.	.
=172.	=172.	=172.	=172.	=172.	=172.	=172.	=172.
2A	.	0A]	.	0c	-tu-	2a]	.
2B-i	.	.	.	.	.	2f	.
[1c	.	.	.	.	.	[1f	.
=173	=173	=173	=173	=173	=173	=173	=173
2c]	.	0G	ju-	0C	-rus	1f]	.
4B-i	.	.	.	.	.	.	.
4A	.	.	.	.	.	.	.
2G	.	.	.	.	.	1e	-rus
2c	-rus	.	.	.	.	.	.
=174.	=174.	=174.	=174.	=174.	=174.	=174.	=174.
2B-i	est	[0F	-di-	0D	est	1f	est
2.A	.	.	.	.	.	.	.
.	.	.	.	.	.	[1d	cum
4G	.	.	.	.	.	.	.
4F	.	.	.	.	.	.	.
4E	.	.	.	.	.	.	.
=175.	=175.	=175.	=175.	=175.	=175.	=175.	=175.
0D	.	0F]	.	[0A	cum	2d]	.
!	!	!	!	!	!	!LO:TX:Z=8:t=MS&colon; b	!
.	.	.	.	.	.	2A	.
.	.	.	.	.	.	1d	.
=176	=176	=176	=176	=176	=176	=176	=176
[0AA	.	[0E	-ca-	0A_	.	0c	glo-
=177.	=177.	=177.	=177.	=177.	=177.	=177.	=177.
0AA_	.	0E_	.	0A]	.	[0e	.
=178.	=178.	=178.	=178.	=178.	=178.	=178.	=178.
0AA_	.	0E_	.	1.c	glo-	1e]	.
.	.	.	.	.	.	1A	-ri-
.	.	.	.	2d	-ri-	.	.
=179	=179	=179	=179	=179	=179	=179	=179
0AA_	.	0E_	.	[0e	-a	[0A	-a
=180.	=180.	=180.	=180.	=180.	=180.	=180.	=180.
0AA_	.	0E_	.	1e]	.	1A]	.
.	.	.	.	[1A	ju-	[1c	ju-
=181.	=181.	=181.	=181.	=181.	=181.	=181.	=181.
0AA]	.	0E]	.	1A]	.	2c]	.
.	.	.	.	.	.	2d	.
.	.	.	.	1B	-di-	[1e	-di-
=182	=182	=182	=182	=182	=182	=182	=182
[0A	vi-	[0AA	-re	2c	-ca-	2e]	.
.	.	.	.	2d	.	2f	.
.	.	.	.	2e	.	2e	.
.	.	.	.	[2f	.	[2a	-ca-
=183.	=183.	=183.	=183.	=183.	=183.	=183.	=183.
0A]	.	0AA]	.	2f]	.	2a]	.
.	.	.	.	2e	.	2g	.
.	.	.	.	1c	-re	1e	-re
=184.	=184.	=184.	=184.	=184.	=184.	=184.	=184.
0D	.	[0A	vi-	1d	vi-	2d	vi-
.	.	.	.	.	.	1f	.
.	.	.	.	[1A	-vos	.	.
.	.	.	.	.	.	2g	.
=185	=185	=185	=185	=185	=185	=185	=185
1C	-vos	0A_	.	2A]	.	1e	-vos
.	.	.	.	2G	.	.	.
[1D	et	.	.	2F	.	[1f	et
.	.	.	.	2E	.	.	.
=186.	=186.	=186.	=186.	=186.	=186.	=186.	=186.
1D]	.	0A_	.	1D	et	1f]	.
1E	mor-	.	.	1C	mor-	1e	mor-
=187.	=187.	=187.	=187.	=187.	=187.	=187.	=187.
0F	-tu-	0A]	.	1.D	-tu-	1.d	-tu-
.	.	.	.	4E	.	2c	.
.	.	.	.	4F	.	.	.
=188	=188	=188	=188	=188	=188	=188	=188
[0E	-os;	[0B	-vos	0G	-os;	0e	-os;
=189.	=189.	=189.	=189.	=189.	=189.	=189.	=189.
0E]	.	0B_	.	1.G	cu-	1r	.
.	.	.	.	.	.	1e	cu-
.	.	.	.	2A	.	.	.
=190.	=190.	=190.	=190.	=190.	=190.	=190.	=190.
[0BB	cu-	0B_	.	2B	-jus	1d	-jus
.	.	.	.	2c	.	.	.
.	.	.	.	[1d	re-	2B	re-
.	.	.	.	.	.	2c	.
=191	=191	=191	=191	=191	=191	=191	=191
1BB]	.	0B]	.	2d]	.	1d	-gni
.	.	.	.	2c	.	.	.
[1E	-jus	.	.	2B	.	1e	non
.	.	.	.	2A	.	.	.
=192.	=192.	=192.	=192.	=192.	=192.	=192.	=192.
2E]	.	[0E	et	0G	-gni	1B	e-
2D	.	.	.	.	.	.	.
2C	.	.	.	.	.	[1e	.
2BB	.	.	.	.	.	.	.
=193.	=193.	=193.	=193.	=193.	=193.	=193.	=193.
[0AA	.	0E]	.	1.A	non	2e]	.
.	.	.	.	.	.	2d	.
.	.	.	.	.	.	2c	.
.	.	.	.	2B	.	2B	.
=194	=194	=194	=194	=194	=194	=194	=194
!	!	!LO:TX:Z=8:t=MS&colon; br-lo-col. lo	!	!	!	!	!
0AA]	.	[0E	mor-	2c	.	0A	-rit
.	.	.	.	2d	.	.	.
.	.	.	.	[1e	e-	.	.
=195.	=195.	=195.	=195.	=195.	=195.	=195.	=195.
[0AA	re-	0E]	.	2e]	.	1r	.
.	.	.	.	1A	.	.	.
.	.	.	.	.	.	[1a	fi-
.	.	.	.	2G	.	.	.
=196.	=196.	=196.	=196.	=196.	=196.	=196.	=196.
1AA]	.	[0A	-tu-	1E	-rit	2a]	.
.	.	.	.	.	.	2g	.
1D	.	.	.	1D	fi-	1f	.
=197	=197	=197	=197	=197	=197	=197	=197
1C	-gni	0A]	.	0E	.	1e	.
[1AA	non	.	.	.	.	[1c	.
=198.	=198.	=198.	=198.	=198.	=198.	=198.	=198.
2AA]	.	0E	-os;	[0A	.	2c]	.
2BB	.	.	.	.	.	2d	.
1C	e-	.	.	.	.	1e	.
=199.	=199.	=199.	=199.	=199.	=199.	=199.	=199.
1D	-rit	[0F	cu-	1A]	.	2d	.
.	.	.	.	.	.	1d	.
2.A	fi-	.	.	1D	-nis,-	.	.
.	.	.	.	.	.	4c	.
4B	.	.	.	.	.	4B	.
=200	=200	=200	=200	=200	=200	=200	=200
2c	.	0F_	.	1r	.	0A	-nis.
1d	.	.	.	.	.	.	.
.	.	.	.	2A	-fi-	.	.
2c	.	.	.	2B	.	.	.
=201.	=201.	=201.	=201.	=201.	=201.	=201.	=201.
1A	-nis.	0F_	.	2c	.	1r	.
.	.	.	.	2d	.	.	.
[1c	Et	.	.	2c	.	[1A	Et
.	.	.	.	[2f	.	.	.
=202.	=202.	=202.	=202.	=202.	=202.	=202.	=202.
2c]	.	0F]	.	2f]	.	1A]	.
2B	.	.	.	2e	.	.	.
!	!	!	!	!LO:TX:X=-70:Z=18:t=MS&colon; c' lacking	!	!	!
1A	in	.	.	2c	.	1A	in
.	.	.	.	2d	.	.	.
=203	=203	=203	=203	=203	=203	=203	=203
1G	spi-	[0E	-jus	2e	.	1B	spi-
.	.	.	.	2f	.	.	.
1E	-ri-	.	.	[1g	.	1B	-ri-
=204.	=204.	=204.	=204.	=204.	=204.	=204.	=204.
1C	-tum	0E]	.	2g]	.	0c	-tum
.	.	.	.	4f	.	.	.
.	.	.	.	4e	.	.	.
[1G	sanc-	.	.	4f	.	.	.
.	.	.	.	4e	.	.	.
.	.	.	.	4d	.	.	.
.	.	.	.	4c	.	.	.
=205.	=205.	=205.	=205.	=205.	=205.	=205.	=205.
1G]	.	0D	re-	2B	.	0d	sanc-
.	.	.	.	2A	.	.	.
1F	-tum,	.	.	1B	.	.	.
=206	=206	=206	=206	=206	=206	=206	=206
1G	do-	[0C	-gni	0c	-nis.	0e	-tum,
1A	-mi-	.	.	.	.	.	.
=207.	=207.	=207.	=207.	=207.	=207.	=207.	=207.
1G	-num	0C]	.	[0e	Et	1g	do-
[1c	.	.	.	.	.	1a	-mi-
=208.	=208.	=208.	=208.	=208.	=208.	=208.	=208.
2c]	.	[0C	non	0e]	.	1g	-num
2B	.	.	.	.	.	.	.
1A	.	.	.	.	.	[1cc	.
=209	=209	=209	=209	=209	=209	=209	=209
1G	.	0C]	.	1e	in	2cc]	.
.	.	.	.	.	.	2b	.
1E	.	.	.	1e	spi-	2a	.
.	.	.	.	.	.	4g	.
.	.	.	.	.	.	4a	.
=210.	=210.	=210.	=210.	=210.	=210.	=210.	=210.
2r	.	[0D	e-	0d	-ri-	1b	.
1F	et	.	.	.	.	.	.
.	.	.	.	.	.	[1a	et
2D	vi-	.	.	.	.	.	.
=211.	=211.	=211.	=211.	=211.	=211.	=211.	=211.
2F	-vi-	0D]	.	0A	-tum	2a]	.
2G	-fi-	.	.	.	.	2g	vi-
[1A	-can-	.	.	.	.	2f	-vi-
.	.	.	.	.	.	2g	-fi-
=212	=212	=212	=212	=212	=212	=212	=212
2A]	.	[0C	-rit	2c	sanc-	1a	-can-
2G	.	.	.	2d	.	.	.
2E	.	.	.	[1e	.	[1g	.
2F	.	.	.	.	.	.	.
=213.	=213.	=213.	=213.	=213.	=213.	=213.	=213.
1.G	.	0C]	.	2e]	.	2g]	.
.	.	.	.	1c	.	2f	.
.	.	.	.	.	.	2e	.
2F	.	.	.	4B	.	2f	.
.	.	.	.	4A	.	.	.
=214.	=214.	=214.	=214.	=214.	=214.	=214.	=214.
0D	-tem;	[0BB	fi-	1.G	-tum,	1g	.
.	.	.	.	.	.	[1d	-tem;
.	.	.	.	[2B	do-	.	.
=215	=215	=215	=215	=215	=215	=215	=215
[0GG	qui	0BB_	.	4B]	.	2d]	.
.	.	.	.	4c	.	.	.
.	.	.	.	2d	-mi-	2.B	qui
.	.	.	.	2B	-num	.	.
.	.	.	.	.	.	4c	.
.	.	.	.	2G	.	2d	.
=216.	=216.	=216.	=216.	=216.	=216.	=216.	=216.
1GG]	.	0BB_	.	2r	.	2G	ex
.	.	.	.	2G	et	2.d	pa-
[1D	ex	.	.	2B	vi-	.	.
.	.	.	.	.	.	4c	.
.	.	.	.	2c	-vi-	4B	.
.	.	.	.	.	.	4A	.
=217.	=217.	=217.	=217.	=217.	=217.	=217.	=217.
0D]	.	0BB]	.	1d	-fi-	2B	.
.	.	.	.	.	.	1A	.
.	.	.	.	1d	-can-	.	.
.	.	.	.	.	.	2G#i	.
=218	=218	=218	=218	=218	=218	=218	=218
[0E	pa-	[0AA	-nis.	0c	-tem;	1A	-tre
.	.	.	.	.	.	1r	.
=219.	=219.	=219.	=219.	=219.	=219.	=219.	=219.
1E]	.	0AA]	.	1.c	qui	0A	fi-
1F	-tre	.	.	.	.	.	.
.	.	.	.	2d	ex	.	.
=220.	=220.	=220.	=220.	=220.	=220.	=220.	=220.
1E	fi-	0r	.	0e	pa-	1A	-li-
1E	-li-	.	.	.	.	1c	.
=221	=221	=221	=221	=221	=221	=221	=221
0D	-o-	0r	.	0A	-tre	1d	-o-
.	.	.	.	.	.	[1f	-que-
=222.	=222.	=222.	=222.	=222.	=222.	=222.	=222.
0AA	-que-	0r	.	1.c	fi-	2f]	.
.	.	.	.	.	.	4e	.
.	.	.	.	.	.	4d	.
.	.	.	.	.	.	1e	-pro-
.	.	.	.	4B	.	.	.
.	.	.	.	4A	.	.	.
=223.	=223.	=223.	=223.	=223.	=223.	=223.	=223.
1r	.	0r	.	1B	-li-	1.d	-ce-
[1F	-pro-	.	.	1A	-o-	.	.
.	.	.	.	.	.	4c	.
.	.	.	.	.	.	4B	.
=224	=224	=224	=224	=224	=224	=224	=224
0F]	.	0r	.	1D	-que-	0A	-dit.
.	.	.	.	2r	.	.	.
.	.	.	.	[2A	-pro-	.	.
=225.	=225.	=225.	=225.	=225.	=225.	=225.	=225.
1E	-ce-	0r	.	2A]	.	1r	.
.	.	.	.	2G	.	.	.
1D	.	.	.	2A	-ce-	[1f	Qui
.	.	.	.	2B	.	.	.
=226.	=226.	=226.	=226.	=226.	=226.	=226.	=226.
0A	-dit.	0r	.	2c	.	1f]	.
.	.	.	.	2d	.	.	.
.	.	.	.	2e	-dit.	1e	cum
.	.	.	.	2c	.	.	.
=227	=227	=227	=227	=227	=227	=227	=227
1B-	Qui	0r	.	2r	.	1d	pa-
.	.	.	.	1f	Qui	.	.
1A	cum	.	.	.	.	[1a	-tre
.	.	.	.	2e	cum	.	.
=228.	=228.	=228.	=228.	=228.	=228.	=228.	=228.
0B-i	pa-	0r	.	2d	pa-	1a]	.
.	.	.	.	2c	.	.	.
.	.	.	.	1d	.	1g	.
=229.	=229.	=229.	=229.	=229.	=229.	=229.	=229.
1A	-tre	0r	.	1c	-tre	1f	et
1G	et	.	.	1d	et	[1b-i	.
=230	=230	=230	=230	=230	=230	=230	=230
0A	fi-	0r	.	1f	fi-	2b-]	.
.	.	.	.	.	.	2a	.
.	.	.	.	[1e	.	[1a	fi-
=231.	=231.	=231.	=231.	=231.	=231.	=231.	=231.
0B-i	-li-	0r	.	1e]	.	1a]	.
.	.	.	.	1d	-li-	1g	-li-
=232.	=232.	=232.	=232.	=232.	=232.	=232.	=232.
0A	-o	0r	.	1.e	-o	1a	-o
.	.	.	.	.	.	[1cc	si-
.	.	.	.	[2f	si-	.	.
=233	=233	=233	=233	=233	=233	=233	=233
0F	si-	0r	.	2f]	.	2cc]	.
.	.	.	.	2e	-mul	2b	-mul
.	.	.	.	2c	ad-	1a	ad-
.	.	.	.	[2d	-o-	.	.
=234.	=234.	=234.	=234.	=234.	=234.	=234.	=234.
1E	-mul	0r	.	2d]	.	1g	-o-
.	.	.	.	1c	-ra-	.	.
1D	ad-	.	.	.	.	1f	-ra-
.	.	.	.	2B	.	.	.
=235.	=235.	=235.	=235.	=235.	=235.	=235.	=235.
2.C	-o-	0r	.	1c	-tur	1e	-tur
4D	.	.	.	.	.	.	.
2E	-ra-	.	.	2G	et	2c	et
2F	-tur	.	.	2A	con-	2d	con-
=236	=236	=236	=236	=236	=236	=236	=236
2G	et	0r	.	2B	-glo-	2e	-glo-
2A	con-	.	.	2c	-ri-	2f	-ri-
2B	-glo-	.	.	2d	-fi-	2g	-fi-
2c	-ri-	.	.	[2e	-ca-	[2a	-ca-
=237.	=237.	=237.	=237.	=237.	=237.	=237.	=237.
2A	-fi-	0r	.	4e]	.	2a]	.
.	.	.	.	4c	.	.	.
2B-i	.	.	.	2d	.	4g	.
.	.	.	.	.	.	4f	.
1G	-ca-	.	.	2.B	.	2.e	.
.	.	.	.	4A	.	4d	.
=238.	=238.	=238.	=238.	=238.	=238.	=238.	=238.
0F	-tur;	[0c	Et	1c	-tur;	0f	-tur;
.	.	.	.	1r	.	.	.
=239	=239	=239	=239	=239	=239	=239	=239
0C	qui	0c]	.	[0e	qui	1r	.
.	.	.	.	.	.	[1g	qui
=240.	=240.	=240.	=240.	=240.	=240.	=240.	=240.
[0G	lo-	[0B	u-	1e]	.	1g]	.
.	.	.	.	1d	lo-	1g	lo-
=241.	=241.	=241.	=241.	=241.	=241.	=241.	=241.
0G]	-cu-	0B]	.	[0d	-cu-	0g	-cu-
=242	=242	=242	=242	=242	=242	=242	=242
[0D	-tus	[0A	-nam	0d]	.	1f	.
.	.	.	.	.	.	1f	-tus
=243.	=243.	=243.	=243.	=243.	=243.	=243.	=243.
0D]	.	0A]	.	[0f	-tus	0d	est
=244.	=244.	=244.	=244.	=244.	=244.	=244.	=244.
[0F	est	0A	sanc-	0f]	.	[0c	.
=245	=245	=245	=245	=245	=245	=245	=245
1F]	.	[0F	-tam	[0f	est	1c]	.
1BB-	per	.	.	.	.	[1d	.
=246.	=246.	=246.	=246.	=246.	=246.	=246.	=246.
[0BB-i	pro-	0F_	.	1f]	.	1d]	.
.	.	.	.	1B-	per	1d	per
=247.	=247.	=247.	=247.	=247.	=247.	=247.	=247.
1BB-]	.	0F_	.	1.B-i	pro-	1d	pro-
[1D	-phe-	.	.	.	.	1d	-phe-
.	.	.	.	2A	.	.	.
=248	=248	=248	=248	=248	=248	=248	=248
0D]	.	0F]	.	1.B-i	.	0d	-tas.
.	.	.	.	[2A	.	.	.
=249.	=249.	=249.	=249.	=249.	=249.	=249.	=249.
0AA	-tas.	[0E	ca-	1.A]	.	0c	.
.	.	.	.	2A	-phe-	.	.
=250.	=250.	=250.	=250.	=250.	=250.	=250.	=250.
1r	.	0E]	.	[0G	-tas.	0B	.
[1E	Et	.	.	.	.	.	.
=251	=251	=251	=251	=251	=251	=251	=251
0E]	.	0B	-tho-	0G]	.	0e	Et
=252.	=252.	=252.	=252.	=252.	=252.	=252.	=252.
0F	u-	0A	-li-	1D	Et	0d	u-
.	.	.	.	1A	u-	.	.
=253.	=253.	=253.	=253.	=253.	=253.	=253.	=253.
[0E	-nam	[0G	-cam	2B	-nam	1e	-nam
.	.	.	.	2c	.	.	.
.	.	.	.	2B	.	2d	.
.	.	.	.	[2e	sanc-	2c	.
=254	=254	=254	=254	=254	=254	=254	=254
0E]	.	0G]	.	2e]	.	1B	.
.	.	.	.	4d	.	.	.
.	.	.	.	4c	.	.	.
.	.	.	.	1B	-tam	[1e	sanc-
=255.	=255.	=255.	=255.	=255.	=255.	=255.	=255.
[0AA	sanc-	[0A	et	1r	.	1e]	.
.	.	.	.	[1c	ca-	1e	-tam
=256.	=256.	=256.	=256.	=256.	=256.	=256.	=256.
0AA]	.	0A]	.	0c]	.	1.e	ca-
.	.	.	.	.	.	2f	.
=257	=257	=257	=257	=257	=257	=257	=257
[0E	-tam	[0B	a-	1B	.	1g	.
.	.	.	.	[1e	-tho-	[1g	-tho-
=258.	=258.	=258.	=258.	=258.	=258.	=258.	=258.
0E]	.	0B_	.	0e]	.	2g]	.
.	.	.	.	.	.	2a	.
.	.	.	.	.	.	2b	.
.	.	.	.	.	.	2cc	.
=259.	=259.	=259.	=259.	=259.	=259.	=259.	=259.
[0E	ca-	0B_	.	[0e	-li-	2b	.
.	.	.	.	.	.	2a	.
.	.	.	.	.	.	[1a	.
=260	=260	=260	=260	=260	=260	=260	=260
0E]	.	0B]	.	0e]	.	2a]	.
.	.	.	.	.	.	1g#i	-li-
.	.	.	.	.	.	2f#i	.
=261.	=261.	=261.	=261.	=261.	=261.	=261.	=261.
0F	-tho-	[0A	-pos-	0c	-cam	0a	-cam
=262.	=262.	=262.	=262.	=262.	=262.	=262.	=262.
0D	-li-	0A]	.	0d	et	0f	et
=263	=263	=263	=263	=263	=263	=263	=263
1E	-cam	0c	-to-	[0G	a-	0e	a-
[1E	et	.	.	.	.	.	.
=264.	=264.	=264.	=264.	=264.	=264.	=264.	=264.
1E]	.	[0B	-li-	0G]	.	0e	-pos-
2D	a-	.	.	.	.	.	.
2C	-pos-	.	.	.	.	.	.
=265.	=265.	=265.	=265.	=265.	=265.	=265.	=265.
0BB	-to-	0B]	.	0G	-pos-	0d	-to-
=266	=266	=266	=266	=266	=266	=266	=266
[0AA	-li-	[0E	-cam	[0A	-to-	0c	-li-
=267.	=267.	=267.	=267.	=267.	=267.	=267.	=267.
0AA_	.	0E]	.	1A]	.	1c	-cam
.	.	.	.	[1E	-li-	1c	ec-
=268.	=268.	=268.	=268.	=268.	=268.	=268.	=268.
0AA_	.	[0A	ec-	1E]	.	1.c	-cle-
.	.	.	.	1F	.	.	.
.	.	.	.	.	.	2d	.
=269	=269	=269	=269	=269	=269	=269	=269
0AA]	.	0A]	.	1E	-cam	1e	.
.	.	.	.	[1A	ec-	1f	.
=270.	=270.	=270.	=270.	=270.	=270.	=270.	=270.
0AA	-cam	0E	-cle-	2A]	.	1e	.
.	.	.	.	2B	.	.	.
.	.	.	.	1c	.	1a	.
=271.	=271.	=271.	=271.	=271.	=271.	=271.	=271.
0BB	ec-	0D	.	0d	-cle-	1g	.
.	.	.	.	.	.	1f	.
=272	=272	=272	=272	=272	=272	=272	=272
[0C	-cle-	[0AA	.	2c	.	0e	.
.	.	.	.	2A	.	.	.
.	.	.	.	[1A	.	.	.
=273.	=273.	=273.	=273.	=273.	=273.	=273.	=273.
0C]	.	0AA]	.	2A]	.	0A	.
.	.	.	.	1.E	.	.	.
=274.	=274.	=274.	=274.	=274.	=274.	=274.	=274.
1.D	-si-	[0BB	-si-	2D	-si-	[0d	-si-
.	.	.	.	1F	.	.	.
2E	.	.	.	2E	.	.	.
=275	=275	=275	=275	=275	=275	=275	=275
1F	.	0BB]	.	2D	.	0d]	.
.	.	.	.	2C	.	.	.
1G	.	.	.	1D	.	.	.
=276.	=276.	=276.	=276.	=276.	=276.	=276.	=276.
*	*	*	*	*	*	*^	*
[0A	.	[0AAl	-am,	[0E	.	[0al/	[0c#l\	-am.
=277.	=277.	=277.	=277.	=277.	=277.	=277.	=277.	=277.
1A]	.	0AA_	.	0E]	.	0a_	0c#_yy	.
2G	.	.	.	.	.	.	.	.
2F	.	.	.	.	.	.	.	.
=278	=278	=278	=278	=278	=278	=278	=278	=278
0E	.	0AA_	.	0A	.	0a_	0c#_yy	.
=279.	=279.	=279.	=279.	=279.	=279.	=279.	=279.	=279.
0El	-am,	0AA]	.	0Al	-am.	0a]	0c#]yy	.
*	*	*	*	*	*	*v	*v	*
!!LO:LB:i:g=z
=280||	=280||	=280||	=280||	=280||	=280||	=280||	=280||
*>D	*>D	*>D	*>D	*>D	*>D	*>D	*>D
*clefF4	*	*clefGv2	*	*clefGv2	*	*clefG2	*
*k[]	*	*k[]	*	*k[]	*	*k[]	*
*M2/1	*	*M2/1	*	*M2/1	*	*M2/1	*
*met(C)	*	*met(C)	*	*met(C)	*	*met(C)	*
*MM312	*	*MM312	*	*MM312	*	*MM312	*
!!section: Confiteor
!!!OMD: Confiteor
!!LO:TX:X=-65:Z=8:t=D, A, B&colon; Exceptional mensural complexity (mm. 280-94, here resolved); see Stoessel 2010
!	!	!LO:TX:Z=8:t=T in its presumably original form	!	!	!	!	!
1AA	Con-	0r	.	0r	.	0r	.
1C	-fi-	.	.	.	.	.	.
=281	=281	=281	=281	=281	=281	=281	=281
1D	-te-	0r	.	0r	.	0r	.
1C	-or	.	.	.	.	.	.
=282	=282	=282	=282	=282	=282	=282	=282
2.D	u-	0r	.	1A	Con-	0r	.
2.F	.	.	.	.	.	.	.
.	.	.	.	1c	-fi-	.	.
[2E	.	.	.	.	.	.	.
=283	=283	=283	=283	=283	=283	=283	=283
4E]	.	0r	.	1d	-te-	0r	.
2.D	.	.	.	.	.	.	.
1AA	-num	.	.	1c	-or	.	.
=284	=284	=284	=284	=284	=284	=284	=284
1D	.	0r	.	2.d	u-	1A	Con-
.	.	.	.	2.f	.	.	.
2r	.	.	.	.	.	1c	-fi-
2A	bap-	.	.	[2e	.	.	.
=285	=285	=285	=285	=285	=285	=285	=285
2B-i	.	0r	.	4e]	.	1d	-te-
.	.	.	.	2.d	.	.	.
2G	.	.	.	.	.	.	.
2A	.	.	.	1A	-num	1c	-or
[2F	.	.	.	.	.	.	.
=286	=286	=286	=286	=286	=286	=286	=286
2F]	.	1A	Con-	1D	.	2.d	u-
1A	.	.	.	.	.	.	.
.	.	.	.	.	.	2.f	.
.	.	1c	-fi-	1r	.	.	.
2A	-tis-	.	.	.	.	[2e	.
=287	=287	=287	=287	=287	=287	=287	=287
1D	-ma	1d	-te-	2.d	bap-	4e]	.
.	.	.	.	.	.	2.d	.
.	.	.	.	2.f	.	.	.
1r	.	1c	-or	.	.	3%2AV	-num
.	.	.	.	[2e	-tis-	.	.
.	.	.	.	.	.	3rZ	.
=288	=288	=288	=288	=288	=288	=288	=288
!	!	!	!	!	!	!LO:TX:Z=8:t=MS&colon; 2 sb	!
1r	.	2d	u-	4e]	.	1.a	bap-
.	.	.	.	2.d	.	.	.
.	.	2f	.	.	.	.	.
2r	.	2e	.	[1A	-ma	.	.
2D	in	2d	.	.	.	2f	-tis-
=289	=289	=289	=289	=289	=289	=289	=289
2.D	re-	1A	-num	2A]	.	2d	-ma
!	!	!	!	!LO:TX:Z=16:t=MS&colon; f d	!	!	!
.	.	.	.	2A	in	1a	in
2.F	.	.	.	.	.	.	.
.	.	1c	bap-	2F	.	.	.
[2E	-mis-	.	.	2G	re-	2g	re-
=290	=290	=290	=290	=290	=290	=290	=290
4E]	.	1d	-tis-	2A	-mis-	2f	-mis-
2.D	-si-	.	.	.	.	.	.
.	.	.	.	2B-i	.	4e	.
.	.	.	.	.	.	4d	.
1AA	-o-	1e	.	1A	-si-	2.c	-si-
.	.	.	.	.	.	[4d	-o-
=291	=291	=291	=291	=291	=291	=291	=291
1BB-i	-nem	1d	.	1D	-o-	2d]	.
.	.	.	.	.	.	2.f	-nem
1C	pec-	1c	.	1G	.	.	.
.	.	.	.	.	.	2.e	pec-
=292	=292	=292	=292	=292	=292	=292	=292
0D	-ca-	0B-i	.	0F	.	2d	-ca-
.	.	.	.	.	.	2.f	-to-
.	.	.	.	.	.	4e	.
.	.	.	.	.	.	4f	.
.	.	.	.	.	.	4d	.
=293	=293	=293	=293	=293	=293	=293	=293
0AA	-to-	0A	.	0E	-nem	4e	.
.	.	.	.	.	.	4c	.
.	.	.	.	.	.	4d	.
.	.	.	.	.	.	4e	.
.	.	.	.	.	.	4A	.
.	.	.	.	.	.	4d	.
.	.	.	.	.	.	4e	.
.	.	.	.	.	.	4c#i	.
=294	=294	=294	=294	=294	=294	=294	=294
1.GG	-rum.	0D	-ma	2r	.	0d	-rum.
.	.	.	.	1G	pec-	.	.
[2BB-i	.	.	.	2F	-ca-	.	.
=295	=295	=295	=295	=295	=295	=295	=295
1BB-i]	.	1d	Et	1D	-to-	1G	.
[1AA	Et	1e	ex-	[1A	-rum.	2r	.
.	.	.	.	.	.	[2c	Et
=296	=296	=296	=296	=296	=296	=296	=296
2AA]	.	0A	-spec-	2A]	.	2c]	.
1.AA	ex-	.	.	2G	Et	2c	ex-
.	.	.	.	1E	ex-	2c	-spec-
.	.	.	.	.	.	2c	-to
=297	=297	=297	=297	=297	=297	=297	=297
0D	-spec-	1A	-to	2.F	-spec-	2d	re-
.	.	.	.	.	.	2.f	.
.	.	.	.	4G	.	.	.
.	.	1d	re-	2A	.	.	.
.	.	.	.	.	.	4g	.
.	.	.	.	[2D	-to	4a	.
.	.	.	.	.	.	4b-i	.
=298	=298	=298	=298	=298	=298	=298	=298
1F	.	1A	-sur-	1D]	.	2a	.
.	.	.	.	.	.	2f	-sur-
1E-	-to	1B-i	-rec-	2r	.	1g	-rec-
.	.	.	.	2G	re-	.	.
=299	=299	=299	=299	=299	=299	=299	=299
1F	.	1A	-ti-	2A	-sur-	2f	-ti-
.	.	.	.	1.c	-rec-	1f	-o-
1C	.	1G	-o-	.	.	.	.
.	.	.	.	.	.	2e	.
=300	=300	=300	=300	=300	=300	=300	=300
2r	.	0F	-nem	2A	-ti-	1f	-nem
2.F	re-	.	.	2c	-o-	.	.
.	.	.	.	2d	-nem	1r	.
4G	-sur-	.	.	.	.	.	.
2A	-rec-	.	.	[2f	mor-	.	.
=301	=301	=301	=301	=301	=301	=301	=301
2D	-ti-	0F	mor-	4f]	.	1a	mor-
.	.	.	.	4e	.	.	.
1A	-o-	.	.	2d	.	.	.
.	.	.	.	2c	.	1a	-tu-
2c	.	.	.	2f	-tu-	.	.
=302	=302	=302	=302	=302	=302	=302	=302
2B-i	.	0G	-tu-	2e	-o-	2g	-o-
1d	-nem	.	.	2.g	.	2.b-i	.
.	.	.	.	4f	.	4a	.
2B-i	mor-	.	.	[2e	.	2g	.
=303	=303	=303	=303	=303	=303	=303	=303
2c	-tu-	1F	-o-	2e]	.	2a	.
1A	-o-	.	.	2d	.	2d	.
.	.	1E	.	2B	.	2e	.
2G	.	.	.	2c#i	.	2g	.
=304	=304	=304	=304	=304	=304	=304	=304
1A	-rum.	0D	-rum.	1d	-rum.	1.f	-rum.
1r	.	.	.	1A	Et	.	.
.	.	.	.	.	.	[2a	Et
=305	=305	=305	=305	=305	=305	=305	=305
1D	Et	0r	.	1d	vi-	4a]	.
.	.	.	.	.	.	4g	.
.	.	.	.	.	.	2f	.
2AA	vi-	.	.	2c	.	2e	vi-
[2D	.	.	.	2d	.	[2f	.
=306	=306	=306	=306	=306	=306	=306	=306
4D]	.	0r	.	1A	.	4f]	.
4E	.	.	.	.	.	4e	.
2F	.	.	.	.	.	2d	.
2G	.	.	.	2B	.	2e	.
2A	.	.	.	2c	.	[2A	.
=307	=307	=307	=307	=307	=307	=307	=307
1D	.	0r	.	1d	.	2A]	.
.	.	.	.	.	.	1d	.
1G	.	.	.	1B	.	.	.
.	.	.	.	.	.	[2B	.
=308	=308	=308	=308	=308	=308	=308	=308
1E	.	0r	.	1e	.	2B]	.
.	.	.	.	.	.	1e	.
1A	.	.	.	1c	.	.	.
.	.	.	.	.	.	[2c	.
=309	=309	=309	=309	=309	=309	=309	=309
1F	.	0r	.	1f	.	2c]	.
.	.	.	.	.	.	1f	.
1B-i	.	.	.	1d	.	.	.
.	.	.	.	.	.	[2d	.
=310	=310	=310	=310	=310	=310	=310	=310
1G	.	0r	.	1g	.	2d]	.
.	.	.	.	.	.	1g	.
1c	.	.	.	1e	.	.	.
.	.	.	.	.	.	[2e	.
=311	=311	=311	=311	=311	=311	=311	=311
1A	.	0r	.	1c	.	2e]	.
.	.	.	.	.	.	[1.a	.
1d	.	.	.	2d	.	.	.
.	.	.	.	2f	.	.	.
=312	=312	=312	=312	=312	=312	=312	=312
2c	.	0r	.	2e	.	2a]	.
2B	.	.	.	2d	.	2g	.
2A	.	.	.	2c	.	2f	.
[2G	.	.	.	[2B	.	[2e	.
=313	=313	=313	=313	=313	=313	=313	=313
2G]	.	0r	.	2B]	.	4e]	.
.	.	.	.	.	.	4d	.
2F	.	.	.	1A	.	1d	.
1E	.	.	.	.	.	.	.
.	.	.	.	2G	.	2c#i	.
=314	=314	=314	=314	=314	=314	=314	=314
0D	-tam	0f	Et	[0A	-tam	0d	-tam
=315	=315	=315	=315	=315	=315	=315	=315
[0AA	.	[0e	vi-	0A_	.	1r	.
.	.	.	.	.	.	1c	ven-
=316	=316	=316	=316	=316	=316	=316	=316
0AA]	.	0e]	.	0A]	.	1c	-tu-
.	.	.	.	.	.	1c	-ri
=317	=317	=317	=317	=317	=317	=317	=317
0D	ven-	0d	-tam	2B-i	ven-	2.d	se-
.	.	.	.	1A	-tu-	.	.
.	.	.	.	.	.	4e	.
.	.	.	.	.	.	2f	.
.	.	.	.	2G	-ri	2g	.
=318	=318	=318	=318	=318	=318	=318	=318
1D	-tu-	1d	ven-	1F	se-	2a	.
.	.	.	.	.	.	1d	.
1G	-ri	1B	.	2G	.	.	.
.	.	.	.	[2d	.	2g	.
=319	=319	=319	=319	=319	=319	=319	=319
2F	se-	1A	-tu-	2d]	.	2a	.
1A	.	.	.	2c	-cu-	2.cc	.
.	.	1e	-ri	1A	-li.	.	.
.	.	.	.	.	.	4b	.
2c	.	.	.	.	.	2a	.
=320	=320	=320	=320	=320	=320	=320	=320
2B-i	.	1d	se-	0r	.	2g	.
2G	.	.	.	.	.	2b-i	.
1A	-cu-	1c	-cu-	.	.	2a	.
.	.	.	.	.	.	2f	.
=321	=321	=321	=321	=321	=321	=321	=321
1B-i	-li.	1d	-li.	1G	A-	1g	-cu-
1A	.	1e	A-	1c	.	1a	-li.
=322	=322	=322	=322	=322	=322	=322	=322
0D	A-	1d	.	2d	.	2.f	A-
.	.	.	.	[1.A	.	.	.
.	.	.	.	.	.	4e	.
.	.	1f	.	.	.	1d	.
=323	=323	=323	=323	=323	=323	=323	=323
1E	.	0e	.	2A]	.	2c	.
.	.	.	.	2G	.	2B	.
[1AA	.	.	.	1A	.	2A	.
.	.	.	.	.	.	[2c	.
=324	=324	=324	=324	=324	=324	=324	=324
1AA]	.	0A	.	1E	.	4c]	.
.	.	.	.	.	.	4d	.
.	.	.	.	.	.	2e	.
[1D	.	.	.	2.F	.	2A	.
.	.	.	.	.	.	[2d	.
.	.	.	.	4G	.	.	.
=325	=325	=325	=325	=325	=325	=325	=325
2D]	.	0d	.	1A	-men,	4d]	.
.	.	.	.	.	.	4e	.
1D	.	.	.	.	.	4f	.
.	.	.	.	.	.	4g	.
.	.	.	.	[1d	a-	2a	.
2G	.	.	.	.	.	2b-i	.
=326	=326	=326	=326	=326	=326	=326	=326
2F	.	1A	.	1d]	.	2a	.
2D	.	.	.	.	.	2f	.
2E	.	1G	.	2B	.	2g	.
2C	.	.	.	2c	.	[2e	.
=327	=327	=327	=327	=327	=327	=327	=327
2D	.	1D	.	2A	.	4e]	.
.	.	.	.	.	.	4d	.
2BB	.	.	.	2G	.	2.d	.
1AA	-men,	1E	.	1A	.	.	.
.	.	.	.	.	.	8c#iL	.
.	.	.	.	.	.	8dJ	.
.	.	.	.	.	.	4.c#i	.
.	.	.	.	.	.	8B	.
=328	=328	=328	=328	=328	=328	=328	=328
2r	.	0Dl	-men.	0Al	-men.	0dl	-men.
2D	a-	.	.	.	.	.	.
1Dl	-men.	.	.	.	.	.	.
==	==	==	==	==	==	==	==
*-	*-	*-	*-	*-	*-	*-	*-
!!!RDF**kern: l=long note in original notation
!!!RDF**kern: i=editorial accidental
!!!RDF**kern: V = start of tuplet marker
!!!RDF**kern: Z = end of tuplet marker
!!!ENC: Jesse Rodin and Emily Zazulia
!!!END: 2019/01/10/
!!!EED: Jesse Rodin & Emily Zazulia
!!!EEV: 2019/01/12/
!!!ONB: Translated from MusicXML and edited on 2019/01/12/ by Craig Sapp
!!muse2ps: T^@{OPR}^u^@{ONM}{. }@{OTL}^C^@{SMS}, @{folio}\nEd. @{EED}^v90,90,90,130i2c91z18l2650
